Assets/FX/CINECOLOR_DAY_FOR_NIGHT.cube
TITLE "Generated by Resolve"
LUT_3D_SIZE 9
0.00102235 0 0
0.0171664 0 0
0.033341 0 0
0.051545 0 0
0.0740978 0.0041352 0
0.0932021 0.00857557 0
0.111406 0.0120241 0
0.129229 0.0149538 0
0.146853 0.0175326 0
0 0.0193637 0
0.0173953 0.0268254 0
0.0344091 0.0312657 0
0.0512245 0.0348363 0
0.0679789 0.0378882 0
0.0847334 0.0405737 0
0.101503 0.0429694 0
0.118334 0.0451209 0
0.135241 0.0470588 0
0.00260929 0.0534829 0
0.0183261 0.056611 0
0.0344854 0.0593118 0
0.0504158 0.0618143 0
0.0663767 0.0641337 0
0.082414 0.0662547 0
0.0985122 0.0682231 0
0.114687 0.0700389 0
0.130922 0.0717327 0
0.00373846 0.0792859 0
0.0186465 0.0817273 0
0.0349432 0.0836652 0
0.0505837 0.0856489 0
0.0662394 0.087541 0
0.0819562 0.0892958 0
0.0977646 0.090959 0
0.113634 0.0925307 0
0.12958 0.0939956 0
0.00437934 0.102693 0
0.0182345 0.104936 0
0.0353246 0.106218 0
0.0508583 0.107866 0
0.0663615 0.109453 0
0.0819104 0.110948 0
0.0975357 0.112383 0
0.113222 0.113741 0
0.129015 0.115023 0
0.00471504 0.124697 0
0.0180362 0.126757 0
0.0355383 0.127626 0
0.0510567 0.129 0
0.0664836 0.130358 0
0.0819257 0.131655 0
0.0974441 0.132906 0
0.113039 0.134096 0
0.12871 0.13521 0
0.00482185 0.145739 0
0.017792 0.147646 0
0.0355993 0.148196 0
0.051133 0.149355 0
0.0665293 0.150515 0
0.0819409 0.151659 0
0.0973983 0.152743 0
0.112917 0.15378 0
0.128496 0.154757 0
0.00471504 0.166064 0
0.0174716 0.167819 0
0.0355077 0.168124 0
0.0511177 0.169085 0
0.0665141 0.170092 0
0.0818952 0.171069 0
0.097322 0.172015 0
0.112795 0.172915 0
0.128344 0.173785 0
0.00450141 0.185763 0
0.0170748 0.187411 0
0.0353399 0.187503 0
0.0510262 0.188296 0
0.066453 0.189136 0
0.0818494 0.189975 0
0.097261 0.190799 0
0.112703 0.191577 0
0.128206 0.19234 0
0 0 0.0344091
0.0139162 0 0.0391394
0.0304417 0 0.0437324
0.049897 0 0.0495613
0.0716564 0.00114443 0.0565499
0.0903182 0.00515755 0.060502
0.108309 0.00842298 0.0635386
0.126009 0.0112459 0.0660105
0.143557 0.0137636 0.0679942
0 0.0180362 0.0326848
0.0147402 0.0236515 0.0387274
0.0315251 0.0277256 0.043122
0.0481422 0.0310979 0.0466926
0.0647593 0.0340276 0.0497139
0.0814069 0.0366064 0.0523384
0.0981155 0.0389258 0.0546426
0.1149 0.0410163 0.056672
0.131792 0.0429236 0.0584726
0 0.0500496 0.0323491
0.0146334 0.0530098 0.0378119
0.0308385 0.0554818 0.0417487
0.0466926 0.0578775 0.044892
0.0625925 0.0601053 0.0474861
0.0785687 0.0621653 0.0496834
0.0946365 0.0640726 0.0515602
0.110765 0.0658579 0.0531624
0.126986 0.0675059 0.05449
0.000335698 0.0757 0.0310521
0.0145266 0.0780194 0.0371405
0.0310369 0.0796979 0.0409857
0.0466163 0.0815747 0.044007
0.062211 0.0833753 0.0464485
0.0778973 0.0850996 0.0484779
0.0936599 0.0867018 0.0501564
0.109499 0.0882277 0.0515602
0.125429 0.089662 0.0526894
0.000900282 0.0990921 0.0293126
0.0140993 0.101122 0.036347
0.0312505 0.102159 0.040177
0.0467231 0.103685 0.0431983
0.0621805 0.105196 0.0455787
0.0776837 0.106645 0.0475013
0.0932631 0.108034 0.049073
0.108949 0.109346 0.0503548
0.124697 0.110597 0.0513619
0.0012665 0.121157 0.026978
0.0139315 0.122881 0.0351873
0.0313725 0.123507 0.0392157
0.0468147 0.124758 0.042298
0.0621805 0.126024 0.0446632
0.0775921 0.127275 0.04654
0.0930648 0.128466 0.0480507
0.108629 0.12961 0.0492409
0.124285 0.130709 0.0501717
0.00148013 0.142351 0.0235142
0.0137026 0.14374 0.0337224
0.0313725 0.144045 0.0380865
0.0468147 0.145052 0.0412604
0.0621347 0.146136 0.0436713
0.0775006 0.147204 0.0455329
0.0929122 0.148226 0.047013
0.108415 0.149233 0.048188
0.12398 0.150195 0.049073
0.00184634 0.163165 0.0156252
0.0134127 0.163928 0.0319524
0.0312505 0.163943 0.0367895
0.0467384 0.164752 0.0401312
0.0620584 0.165637 0.0426032
0.0773938 0.166552 0.0445106
0.0927749 0.167452 0.0459907
0.108232 0.168307 0.0471504
0.123735 0.169146 0.0480354
0.00177005 0.183032 0.0119326
0.013077 0.183551 0.0298772
0.0310521 0.183291 0.0353704
0.0466163 0.183917 0.038941
0.0619516 0.184649 0.0415198
0.0772869 0.185428 0.0434882
0.0926528 0.186191 0.0449989
0.10808 0.186938 0.0461891
0.123552 0.187655 0.0470741
0 0 0.0760967
0.0132753 0 0.0796368
0.0304112 0 0.0840162
0.0520638 0 0.0922103
0.0715953 0.000534066 0.0979019
0.0898604 0.00419623 0.102098
0.107637 0.00726329 0.105608
0.125154 0.00993362 0.108659
0.14255 0.0122988 0.111391
0 0.0176394 0.0771191
0.0143435 0.0228275 0.0813153
0.0310674 0.0266728 0.0847028
0.0475776 0.0299382 0.0878614
0.0640879 0.0327611 0.0907759
0.0806439 0.0352636 0.0934615
0.0972763 0.0375067 0.0959793
0.113985 0.0395209 0.0983597
0.1308 0.0413214 0.100633
0 0.0486305 0.0775006
0.0131838 0.0517281 0.0808728
0.0296483 0.0541695 0.0835279
0.0455329 0.0565347 0.0860609
0.0614176 0.058732 0.0883803
0.0773785 0.0607462 0.0905013
0.0934005 0.0626078 0.0924544
0.109499 0.0643473 0.094255
0.125673 0.0659495 0.0959029
0 0.07393 0.0780499
0.0124514 0.0765393 0.0814221
0.0295262 0.078172 0.0835737
0.045182 0.0800793 0.0858015
0.0608072 0.0818799 0.0878004
0.0764782 0.0835737 0.0896162
0.0922255 0.0851606 0.0912795
0.108049 0.0866407 0.0927749
0.123949 0.0880293 0.0941329
0 0.0970321 0.0784772
0.0120851 0.0993515 0.0818799
0.0295262 0.100465 0.0837415
0.0450904 0.102037 0.0857557
0.0605783 0.103563 0.0875563
0.0760967 0.105013 0.0891585
0.0916915 0.106386 0.0906081
0.107362 0.107683 0.0919051
0.123095 0.108904 0.0930648
0 0.118807 0.0787366
0.0117647 0.120897 0.0821546
0.0294652 0.12166 0.0838331
0.0450141 0.122988 0.0856947
0.0604257 0.124285 0.0873426
0.0758679 0.125551 0.0888075
0.091371 0.126741 0.0900893
0.106935 0.127871 0.0912337
0.12256 0.128939 0.0922255
0 0.139651 0.0788128
0.011368 0.141573 0.0822766
0.0292973 0.142061 0.0838331
0.0448615 0.14316 0.0855726
0.0602579 0.144289 0.0870985
0.0756695 0.145373 0.0884413
0.0911116 0.146426 0.0896162
0.106615 0.147417 0.0906386
0.122179 0.148363 0.0915236
0 0.159792 0.0787366
0.0108949 0.161563 0.0822461
0.0290227 0.161822 0.083711
0.0446632 0.162737 0.085359
0.0600748 0.163699 0.0868086
0.0754559 0.164645 0.0880598
0.0908675 0.16556 0.0891432
0.10634 0.16643 0.090074
0.121859 0.167254 0.0908827
0 0.179339 0.0785229
0.0104067 0.181003 0.0820935
0.0287022 0.181048 0.0834974
0.0444343 0.181796 0.0850996
0.0598611 0.18262 0.0864881
0.0752575 0.183429 0.0876783
0.0906691 0.184222 0.0887007
0.106111 0.184985 0.0895705
0.121599 0.185702 0.0903182
0 0 0.105852
0.0135042 0 0.10927
0.0314794 0 0.114214
0.0534524 0 0.122896
0.072221 0.000671397 0.128038
0.0902113 0.00408942 0.132158
0.107805 0.00700389 0.135683
0.125216 0.00955215 0.138857
0.142504 0.0118257 0.141741
0 0.0178988 0.108598
0.0147097 0.0228275 0.111955
0.0314031 0.0264744 0.114839
0.0477913 0.0296178 0.117784
0.06421 0.0323644 0.120607
0.080705 0.0347906 0.123293
0.097261 0.0369726 0.125856
0.113924 0.0389105 0.128328
0.130694 0.0406653 0.130739
0 0.0483101 0.108171
0.0126345 0.0514534 0.111131
0.0293431 0.0537575 0.11339
0.0452125 0.0560769 0.115755
0.0610819 0.0582284 0.117998
0.0770123 0.0601968 0.120104
0.0930037 0.0620279 0.122087
0.109071 0.0637064 0.123949
0.125216 0.0652781 0.125719
0 0.0733959 0.10898
0.0116884 0.0760662 0.111879
0.0289769 0.0776226 0.113619
0.0446326 0.0794842 0.115648
0.0602579 0.0812695 0.11754
0.0759289 0.0829328 0.119326
0.0916609 0.0844892 0.120989
0.107469 0.0859388 0.122545
0.123354 0.0873121 0.123995
0 0.0963455 0.109773
0.0112459 0.0987106 0.112612
0.028809 0.0998093 0.114061
0.0443885 0.101366 0.115846
0.0598917 0.102876 0.117525
0.0754101 0.104295 0.119081
0.0910048 0.105653 0.120516
0.106661 0.10692 0.121843
0.122377 0.10811 0.123064
0 0.117998 0.110445
0.0108339 0.12015 0.113252
0.0286259 0.120912 0.114488
0.0442054 0.122225 0.116091
0.0596323 0.123522 0.117586
0.0750744 0.124758 0.118959
0.0905776 0.125933 0.120226
0.106126 0.127047 0.12137
0.121767 0.128099 0.122423
0 0.13875 0.110964
0.0103609 0.140734 0.113756
0.0283513 0.141222 0.114824
0.0439612 0.142321 0.116274
0.0593729 0.14345 0.117632
0.0747845 0.144518 0.118868
0.0902266 0.145556 0.119982
0.10573 0.146532 0.120989
0.121294 0.147463 0.121904
0 0.158816 0.111315
0.00981155 0.160647 0.114107
0.0280003 0.160906 0.115038
0.0436866 0.161837 0.116381
0.0591135 0.162799 0.117617
0.0745098 0.163729 0.11873
0.0899367 0.164645 0.119738
0.105394 0.165499 0.120638
0.120912 0.166308 0.121447
0 0.178286 0.111543
0.00926223 0.179995 0.114321
0.0276188 0.180072 0.11516
0.0433814 0.180835 0.116411
0.058854 0.181659 0.117556
0.0742504 0.182467 0.118593
0.0896773 0.183261 0.119509
0.105119 0.184009 0.120317
0.120607 0.184726 0.12105
0 0 0.131182
0.0141299 0 0.134752
0.0335088 0 0.140978
0.0547341 0 0.148974
0.0730602 0.00103761 0.153735
0.090837 0.00427253 0.157733
0.108278 0.00706493 0.161242
0.125566 0.00952163 0.164431
0.142779 0.0117189 0.167376
0.000564584 0.0182956 0.135393
0.0152895 0.0231327 0.138079
0.0320287 0.0265812 0.140536
0.0482948 0.0296178 0.143313
0.064622 0.0322881 0.146044
0.0810407 0.0346532 0.148699
0.0975509 0.036759 0.151293
0.114168 0.0386664 0.153811
0.130892 0.0403601 0.156298
0 0.0483558 0.134005
0.0122225 0.0515602 0.136797
0.0293736 0.0536965 0.138735
0.0452277 0.0559548 0.140993
0.0610666 0.0580606 0.143191
0.0769665 0.0599832 0.145281
0.0929274 0.0617685 0.147295
0.10898 0.0634318 0.149203
0.125093 0.0649577 0.151034
0 0.073228 0.134844
0.0113375 0.0759289 0.137514
0.0287633 0.0774243 0.139025
0.0444343 0.0792554 0.140948
0.0600443 0.0809949 0.142809
0.0757 0.0826276 0.144579
0.0914168 0.0841688 0.146258
0.10721 0.0855879 0.147845
0.123079 0.0869306 0.149355
0 0.0960555 0.135821
0.0108034 0.0984512 0.138399
0.0284581 0.0995041 0.13962
0.0440528 0.101045 0.141299
0.0595407 0.102525 0.142916
0.0750744 0.103929 0.144442
0.0906386 0.105257 0.145892
0.106294 0.106508 0.14725
0.122011 0.107683 0.148516
0 0.117632 0.136721
0.0102998 0.119799 0.139239
0.0281529 0.120531 0.140246
0.0437476 0.121828 0.141726
0.0591897 0.123095 0.14316
0.0746319 0.124331 0.144503
0.0901198 0.12549 0.145754
0.105684 0.126589 0.146914
0.121309 0.127611 0.147997
0 0.138293 0.137484
0.00975052 0.140291 0.139956
0.0278019 0.14078 0.140795
0.0434272 0.141863 0.142123
0.058854 0.142977 0.143389
0.0742657 0.144045 0.144564
0.0897078 0.145052 0.145663
0.105211 0.146014 0.146685
0.120775 0.146929 0.147616
0 0.158282 0.138094
0.00915541 0.160143 0.140536
0.0273747 0.160403 0.141222
0.0430762 0.161318 0.142412
0.0585184 0.162264 0.143557
0.07393 0.163195 0.14461
0.0893568 0.164096 0.145586
0.104814 0.164935 0.146471
0.120333 0.165743 0.14728
0 0.177707 0.138567
0.00854505 0.179431 0.140978
0.0269474 0.179507 0.141543
0.0427405 0.18027 0.142626
0.0582132 0.181079 0.143664
0.0736248 0.181888 0.14461
0.0890516 0.182666 0.145495
0.104494 0.183413 0.146273
0.119982 0.184115 0.147005
0 0 0.153979
0.0151064 0 0.158053
0.036759 0 0.16643
0.0559854 0 0.172335
0.073991 0.00155642 0.176806
0.0915847 0.00462348 0.180682
0.108904 0.00729381 0.184146
0.126101 0.00965896 0.187335
0.143221 0.0117952 0.190295
0.00210575 0.0187533 0.159518
0.0157778 0.023621 0.161624
0.0327916 0.0268406 0.163622
0.0489509 0.0297856 0.166247
0.0652018 0.0323796 0.168887
0.0815595 0.034699 0.171511
0.0980087 0.036759 0.17409
0.11458 0.0386053 0.176638
0.131273 0.0402533 0.179171
0 0.0485847 0.157046
0.0122225 0.0517891 0.159716
0.0295567 0.0538186 0.16144
0.0454108 0.0560311 0.163622
0.0612345 0.0580758 0.165774
0.0771038 0.059968 0.167865
0.0930495 0.0617227 0.169879
0.109056 0.0633402 0.171832
0.125154 0.0648356 0.173709
0 0.0732891 0.15787
0.0112154 0.0759899 0.160388
0.028748 0.077409 0.161746
0.044419 0.0792096 0.163592
0.060029 0.0809339 0.165423
0.0756695 0.082536 0.167178
0.091371 0.0840314 0.168872
0.107149 0.0854353 0.170489
0.123003 0.0867475 0.172045
0 0.0959945 0.158953
0.0105745 0.0983902 0.161364
0.0282902 0.0994125 0.162448
0.0439002 0.100923 0.16405
0.0594034 0.102373 0.165637
0.0749218 0.103761 0.167147
0.090486 0.105074 0.168612
0.106126 0.106294 0.169986
0.121828 0.107439 0.171298
0 0.117479 0.160006
0.00999466 0.119646 0.162341
0.0278935 0.120363 0.16321
0.0435035 0.12163 0.164614
0.0589456 0.122896 0.166003
0.0743877 0.124102 0.16733
0.0898756 0.125246 0.168582
0.105425 0.126314 0.169772
0.12105 0.127337 0.170886
0 0.138079 0.160937
0.00936904 0.140078 0.163226
0.027451 0.140536 0.163912
0.0431067 0.141619 0.165148
0.0585336 0.142702 0.166369
0.0739452 0.143755 0.167529
0.0894026 0.144762 0.168612
0.104891 0.145708 0.169635
0.120455 0.146609 0.170596
0 0.157992 0.16173
0.00872816 0.159854 0.163973
0.026978 0.160113 0.164492
0.0426947 0.161013 0.165591
0.0581521 0.161959 0.166674
0.0735485 0.162875 0.167697
0.0889754 0.16376 0.168643
0.104448 0.164584 0.169528
0.119966 0.165377 0.170352
0 0.177356 0.162371
0.00807202 0.179095 0.164569
0.0265049 0.179171 0.164965
0.0423133 0.179919 0.165942
0.0577859 0.180728 0.166903
0.0732128 0.181521 0.167803
0.0886397 0.1823 0.168658
0.104082 0.183032 0.169436
0.11957 0.183719 0.170153
0 0 0.175082
0.016434 0 0.180011
0.0386358 0 0.188632
0.0572061 0 0.193805
0.0749828 0.00213626 0.198062
0.0924086 0.005066 0.201816
0.109621 0.00762951 0.205234
0.126726 0.00993362 0.208392
0.143786 0.0119936 0.211368
0.0039826 0.0191196 0.182055
0.0165103 0.024155 0.183307
0.0336461 0.0272068 0.184924
0.0497139 0.0300755 0.187381
0.0658885 0.0326085 0.18996
0.0821698 0.0348516 0.192538
0.0985733 0.0368658 0.195102
0.115099 0.0386816 0.197665
0.131762 0.0402838 0.200229
0 0.0489204 0.17821
0.0124056 0.0521401 0.180758
0.0298772 0.0540627 0.182345
0.0457008 0.0562142 0.184466
0.0615091 0.0582284 0.186587
0.077348 0.06009 0.188663
0.0932784 0.061799 0.190692
0.10927 0.063386 0.192645
0.125338 0.0648508 0.194553
0 0.0734722 0.178988
0.0112459 0.076173 0.181399
0.0288548 0.0775464 0.182635
0.0445258 0.0793164 0.184436
0.0601358 0.0809949 0.186236
0.075761 0.0825666 0.187991
0.0914626 0.0840467 0.1897
0.107225 0.08542 0.191333
0.123064 0.0867018 0.19292
0 0.0960861 0.180133
0.0104982 0.0984665 0.182437
0.028275 0.0994583 0.183413
0.0439002 0.100938 0.18497
0.0593881 0.102373 0.186526
0.0748913 0.103731 0.188037
0.0904555 0.105013 0.189502
0.106096 0.106218 0.19089
0.121782 0.107347 0.192233
0 0.117464 0.181292
0.00984207 0.119646 0.183505
0.0277714 0.120333 0.184268
0.0433967 0.121584 0.185626
0.0588388 0.122835 0.186984
0.0742809 0.12401 0.188312
0.0897688 0.125139 0.189563
0.105318 0.126192 0.190768
0.120928 0.127199 0.191897
0 0.138003 0.182361
0.00915541 0.140002 0.184512
0.0272679 0.140459 0.185092
0.0429236 0.141512 0.186282
0.0583658 0.142596 0.187472
0.0737774 0.143633 0.188617
0.0892195 0.14461 0.1897
0.104723 0.145556 0.190723
0.120272 0.146426 0.191699
0 0.15787 0.183291
0.0084535 0.159731 0.185382
0.0267338 0.159976 0.185809
0.0424659 0.160861 0.186831
0.0579232 0.161791 0.187869
0.0733349 0.162692 0.188876
0.0887617 0.163561 0.189822
0.104219 0.164385 0.190707
0.119738 0.165164 0.191531
0 0.177172 0.18407
0.00776684 0.178912 0.186099
0.0261997 0.178988 0.186389
0.0420386 0.179721 0.187289
0.0575265 0.180514 0.188205
0.0729534 0.181308 0.189075
0.088365 0.182071 0.189899
0.103822 0.182788 0.190677
0.11931 0.183474 0.191394
0.000427253 0 0.195041
0.0181735 0 0.201648
0.040238 0 0.209171
0.0584115 0 0.213886
0.0760052 0.00276188 0.21796
0.0932784 0.00556954 0.221607
0.110399 0.00805676 0.224964
0.127428 0.0102846 0.228107
0.144411 0.0122835 0.231067
0.00657664 0.0192416 0.203876
0.0174563 0.0246891 0.203601
0.0345769 0.0276341 0.204883
0.0505379 0.0304417 0.207202
0.0666361 0.0329137 0.209689
0.0828565 0.035111 0.212238
0.0992142 0.0370794 0.214786
0.115709 0.0388495 0.21735
0.132342 0.0404212 0.219928
0 0.0493629 0.197986
0.0127108 0.0525521 0.200443
0.0302739 0.0543832 0.201907
0.0460975 0.0565042 0.203967
0.0618753 0.0584726 0.206058
0.0776989 0.0602884 0.208133
0.0935988 0.0619669 0.210163
0.10956 0.0635233 0.212131
0.125628 0.0649577 0.214069
0 0.0737621 0.198688
0.0113832 0.0764477 0.201022
0.0290532 0.0777752 0.202167
0.0447395 0.0794995 0.203922
0.0603189 0.0811475 0.205707
0.0759442 0.0827039 0.207462
0.0916304 0.0841535 0.209171
0.107378 0.0854963 0.210834
0.123201 0.0867628 0.212436
0 0.0962692 0.199878
0.0105287 0.0986496 0.20209
0.0283513 0.0995956 0.202991
0.0439765 0.101045 0.204517
0.0594644 0.102464 0.206043
0.0749676 0.103807 0.207568
0.0905318 0.105074 0.209033
0.106157 0.106249 0.210452
0.121843 0.107362 0.21181
0 0.117571 0.201129
0.00978103 0.119753 0.20325
0.0277562 0.120409 0.203937
0.0433967 0.121645 0.205264
0.0588388 0.122866 0.206607
0.0742809 0.124025 0.207919
0.0897688 0.125139 0.209171
0.105303 0.126177 0.210391
0.120912 0.127169 0.211551
0 0.138048 0.202304
0.00903334 0.140047 0.204364
0.0271763 0.140475 0.204868
0.0428473 0.141512 0.205997
0.0582895 0.14258 0.207172
0.0737011 0.143603 0.208301
0.0891432 0.144564 0.209384
0.104646 0.145495 0.210422
0.120195 0.146365 0.211414
0 0.157855 0.203342
0.00828565 0.159716 0.205341
0.0265812 0.159945 0.205676
0.0423438 0.160815 0.206653
0.0578012 0.16173 0.20766
0.0732128 0.162631 0.208637
0.0886397 0.163485 0.209583
0.104097 0.164294 0.210468
0.119615 0.165057 0.211307
0 0.177111 0.204227
0.00756847 0.178851 0.206149
0.0260319 0.178897 0.206348
0.0418708 0.179629 0.207187
0.0573587 0.180423 0.208072
0.0727855 0.181201 0.208927
0.0882124 0.181949 0.209735
0.103655 0.182666 0.210498
0.119142 0.183337 0.211215
0.00184634 0 0.214328
0.0210422 0 0.223255
0.0416724 0 0.228489
0.0595865 0.000335698 0.232868
0.0770275 0.00343328 0.236774
0.0941787 0.00614939 0.24033
0.111208 0.00854505 0.243626
0.128176 0.0106966 0.246738
0.145113 0.0126497 0.249714
0.00823987 0.0197757 0.223606
0.0185245 0.0252537 0.222858
0.0355535 0.0281224 0.223789
0.0514229 0.030869 0.225971
0.0674449 0.0332799 0.228382
0.0836042 0.0354314 0.230884
0.0999161 0.0373541 0.233417
0.116365 0.0390784 0.235981
0.132967 0.0406195 0.238575
0 0.0498512 0.216693
0.0130922 0.0530251 0.219059
0.0307317 0.0547951 0.220401
0.04654 0.0568551 0.222416
0.0622873 0.0587778 0.224491
0.0780957 0.0605631 0.226551
0.0939803 0.062211 0.22858
0.109926 0.0637369 0.230579
0.125963 0.0651408 0.232532
0 0.0741131 0.217304
0.0115969 0.0767987 0.219562
0.0293278 0.0780652 0.22063
0.0450141 0.0797589 0.222354
0.0605936 0.0813916 0.224125
0.0762036 0.0829023 0.225879
0.0918746 0.0843366 0.227604
0.107607 0.0856641 0.229267
0.12343 0.0869001 0.2309
0 0.0965286 0.218524
0.0106355 0.098909 0.220676
0.0285039 0.0998093 0.2215
0.0441444 0.101244 0.222995
0.0596323 0.102632 0.224506
0.0751202 0.10396 0.226032
0.0906691 0.105196 0.227497
0.106294 0.106355 0.228931
0.121965 0.107454 0.23032
0 0.117754 0.219837
0.00981155 0.119921 0.221897
0.0278172 0.120562 0.222522
0.0434577 0.121767 0.223804
0.0589151 0.122972 0.225132
0.0743572 0.124132 0.226444
0.0898299 0.125216 0.22771
0.105364 0.126238 0.228931
0.120958 0.127214 0.230106
0 0.13817 0.221103
0.00900282 0.140169 0.223087
0.0271763 0.140566 0.223529
0.0428626 0.141604 0.224628
0.0583047 0.142641 0.225772
0.0737163 0.143648 0.226902
0.0891585 0.14461 0.227985
0.104646 0.14551 0.229038
0.120195 0.146365 0.23003
0 0.157916 0.222232
0.00820935 0.159777 0.22414
0.0265354 0.159991 0.224414
0.042298 0.160861 0.225345
0.0577554 0.161761 0.226337
0.073167 0.162631 0.227314
0.0885939 0.163485 0.228244
0.104051 0.164279 0.229129
0.11957 0.165026 0.229984
0 0.177127 0.223209
0.00746166 0.178866 0.22504
0.0259403 0.178912 0.225162
0.0417792 0.179629 0.225956
0.0572824 0.180407 0.22681
0.0727092 0.18117 0.227649
0.0881361 0.181918 0.228443
0.103578 0.18262 0.229206
0.119066 0.183276 0.229923
