Assets/FX/CINECOLOR_DAY_FOR_NIGHT.cube
TITLE "Generated by Resolve"
LUT_3D_SIZE 5
0.00102235 0 0
0.033341 0 0
0.0740978 0.0041352 0
0.111406 0.0120241 0
0.146853 0.0175326 0
0.00260929 0.0534829 0
0.0344854 0.0593118 0
0.0663767 0.0641337 0
0.0985122 0.0682231 0
0.130922 0.0717327 0
0.00437934 0.102693 0
0.0353246 0.106218 0
0.0663615 0.109453 0
0.0975357 0.112383 0
0.129015 0.115023 0
0.00482185 0.145739 0
0.0355993 0.148196 0
0.0665293 0.150515 0
0.0973983 0.152743 0
0.128496 0.154757 0
0.00450141 0.185763 0
0.0353399 0.187503 0
0.066453 0.189136 0
0.097261 0.190799 0
0.128206 0.19234 0
0 0 0.0760967
0.0304112 0 0.0840162
0.0715953 0.000534066 0.0979019
0.107637 0.00726329 0.105608
0.14255 0.0122988 0.111391
0 0.0486305 0.0775006
0.0296483 0.0541695 0.0835279
0.0614176 0.058732 0.0883803
0.0934005 0.0626078 0.0924544
0.125673 0.0659495 0.0959029
0 0.0970321 0.0784772
0.0295262 0.100465 0.0837415
0.0605783 0.103563 0.0875563
0.0916915 0.106386 0.0906081
0.123095 0.108904 0.0930648
0 0.139651 0.0788128
0.0292973 0.142061 0.0838331
0.0602579 0.144289 0.0870985
0.0911116 0.146426 0.0896162
0.122179 0.148363 0.0915236
0 0.179339 0.0785229
0.0287022 0.181048 0.0834974
0.0598611 0.18262 0.0864881
0.0906691 0.184222 0.0887007
0.121599 0.185702 0.0903182
0 0 0.131182
0.0335088 0 0.140978
0.0730602 0.00103761 0.153735
0.108278 0.00706493 0.161242
0.142779 0.0117189 0.167376
0 0.0483558 0.134005
0.0293736 0.0536965 0.138735
0.0610666 0.0580606 0.143191
0.0929274 0.0617685 0.147295
0.125093 0.0649577 0.151034
0 0.0960555 0.135821
0.0284581 0.0995041 0.13962
0.0595407 0.102525 0.142916
0.0906386 0.105257 0.145892
0.122011 0.107683 0.148516
0 0.138293 0.137484
0.0278019 0.14078 0.140795
0.058854 0.142977 0.143389
0.0897078 0.145052 0.145663
0.120775 0.146929 0.147616
0 0.177707 0.138567
0.0269474 0.179507 0.141543
0.0582132 0.181079 0.143664
0.0890516 0.182666 0.145495
0.119982 0.184115 0.147005
0 0 0.175082
0.0386358 0 0.188632
0.0749828 0.00213626 0.198062
0.109621 0.00762951 0.205234
0.143786 0.0119936 0.211368
0 0.0489204 0.17821
0.0298772 0.0540627 0.182345
0.0615091 0.0582284 0.186587
0.0932784 0.061799 0.190692
0.125338 0.0648508 0.194553
0 0.0960861 0.180133
0.028275 0.0994583 0.183413
0.0593881 0.102373 0.186526
0.0904555 0.105013 0.189502
0.121782 0.107347 0.192233
0 0.138003 0.182361
0.0272679 0.140459 0.185092
0.0583658 0.142596 0.187472
0.0892195 0.14461 0.1897
0.120272 0.146426 0.191699
0 0.177172 0.18407
0.0261997 0.178988 0.186389
0.0575265 0.180514 0.188205
0.088365 0.182071 0.189899
0.11931 0.183474 0.191394
0.00184634 0 0.214328
0.0416724 0 0.228489
0.0770275 0.00343328 0.236774
0.111208 0.00854505 0.243626
0.145113 0.0126497 0.249714
0 0.0498512 0.216693
0.0307317 0.0547951 0.220401
0.0622873 0.0587778 0.224491
0.0939803 0.062211 0.22858
0.125963 0.0651408 0.232532
0 0.0965286 0.218524
0.0285039 0.0998093 0.2215
0.0596323 0.102632 0.224506
0.0906691 0.105196 0.227497
0.121965 0.107454 0.23032
0 0.13817 0.221103
0.0271763 0.140566 0.223529
0.0583047 0.142641 0.225772
0.0891585 0.14461 0.227985
0.120195 0.146365 0.23003
0 0.177127 0.223209
0.0259403 0.178912 0.225162
0.0572824 0.180407 0.22681
0.0881361 0.181918 0.228443
0.119066 0.183276 0.229923
