Assets/FX/CINECOLOR_DAY_FOR_NIGHT.cube
TITLE "Generated by Resolve"
LUT_3D_SIZE 33
0.00102235 0 0
0.00503548 0 0
0.00924697 0 0
0.013611 0 0
0.0171664 0 0
0.0210422 0 0
0.0250401 0 0
0.0291447 0 0
0.033341 0 0
0.0376135 0 0
0.0420691 0 0
0.0466926 0 0
0.051545 0 0
0.0567788 0 0
0.0633097 0.000793469 0
0.0689555 0.00268559 0
0.0740978 0.0041352 0
0.0790265 0.00538643 0
0.0838331 0.00653086 0
0.0885481 0.00758373 0
0.0932021 0.00857557 0
0.0977951 0.00950637 0
0.102373 0.0103761 0
0.106905 0.0112306 0
0.111406 0.0120241 0
0.115892 0.0128023 0
0.120348 0.01355 0
0.124804 0.0142672 0
0.129229 0.0149538 0
0.133654 0.0156252 0
0.138064 0.0162814 0
0.142458 0.0169223 0
0.146853 0.0175326 0
0.0009308 0 0
0.00495918 0 0
0.00915541 0 0
0.0135653 0 0
0.0172274 0 0
0.0212253 0 0
0.0253758 0 0
0.0297398 0 0
0.0343328 0.000106813 0
0.0392309 0.00155642 0
0.0446174 0.0033875 0
0.0511177 0.00616464 0
0.0564279 0.00784314 0
0.0614023 0.00923171 0
0.0662089 0.0104524 0
0.0709239 0.0115816 0
0.0755779 0.0126192 0
0.0801556 0.0135958 0
0.0847028 0.0145113 0
0.0892195 0.0153811 0
0.0937057 0.0162203 0
0.0981613 0.0170138 0
0.102602 0.017792 0
0.107042 0.0185245 0
0.111452 0.0192416 0
0.115846 0.0199283 0
0.120241 0.0205997 0
0.124636 0.0212558 0
0.129 0.0218814 0
0.133379 0.0224918 0
0.137743 0.0230869 0
0.142107 0.0236515 0
0.146456 0.0242161 0
0.000534066 0 0
0.00463874 0.000411994 0
0.00881971 0.00144961 0
0.0132448 0.00254826 0
0.0170901 0.00393683 0
0.0214389 0.00538643 0
0.0261997 0.00701915 0
0.0319829 0.0093843 0
0.0379187 0.0117647 0
0.0429541 0.0133364 0
0.0477607 0.0146944 0
0.0524453 0.0158999 0
0.0570535 0.0170138 0
0.0616007 0.0180362 0
0.0661021 0.0190127 0
0.070573 0.0199283 0
0.0750286 0.020798 0
0.0794537 0.0216373 0
0.0838636 0.0224308 0
0.0882734 0.0231937 0
0.092668 0.0239261 0
0.0970474 0.0246433 0
0.101427 0.0253147 0
0.105806 0.0259861 0
0.11017 0.026627 0
0.114534 0.0272374 0
0.118883 0.0278477 0
0.123247 0.0284276 0
0.127596 0.0289921 0
0.13196 0.0295415 0
0.136309 0.0300755 0
0.140658 0.0306096 0
0.145006 0.0311131 0
0 0.00881971 0
0.00148013 0.0102235 0
0.00587472 0.01178 0
0.0107424 0.0135958 0
0.0163729 0.0166323 0
0.0213474 0.018616 0
0.0260014 0.0201877 0
0.030518 0.021561 0
0.0349737 0.022797 0
0.0393683 0.0239261 0
0.0437324 0.0249943 0
0.0480812 0.0259861 0
0.0523995 0.0269322 0
0.0567178 0.0278325 0
0.0610208 0.028687 0
0.0653239 0.0294957 0
0.0696269 0.0302892 0
0.0739147 0.0310369 0
0.0782025 0.0317693 0
0.0825055 0.0324712 0
0.0867933 0.0331426 0
0.0910964 0.0337835 0
0.0954147 0.0344091 0
0.0997177 0.0350195 0
0.104036 0.0355993 0
0.10837 0.0361639 0
0.112718 0.0367132 0
0.117067 0.037232 0
0.121447 0.0377356 0
0.125826 0.0382239 0
0.130236 0.0386816 0
0.134676 0.0391241 0
0.139162 0.0395361 0
0 0.0193637 0
0.00358587 0.0222171 0
0.00843824 0.0239872 0
0.0131228 0.025452 0
0.0173953 0.0268254 0
0.0216678 0.0280613 0
0.0259403 0.0291905 0
0.0301823 0.0302586 0
0.0344091 0.0312657 0
0.0386206 0.0322271 0
0.0428321 0.0331273 0
0.0470283 0.0340124 0
0.0512245 0.0348363 0
0.0554208 0.0356451 0
0.059617 0.0364233 0
0.063798 0.037171 0
0.0679789 0.0378882 0
0.0721752 0.0385901 0
0.0763561 0.0392767 0
0.0805371 0.0399329 0
0.0847334 0.0405737 0
0.0889143 0.0411994 0
0.0931106 0.0418097 0
0.0973068 0.0423896 0
0.101503 0.0429694 0
0.105699 0.043534 0
0.109911 0.0440681 0
0.114122 0.0446021 0
0.118334 0.0451209 0
0.12256 0.0456245 0
0.126772 0.0461128 0
0.131014 0.0466011 0
0.135241 0.0470588 0
0.000732433 0.0304723 0
0.00502022 0.0317693 0
0.00924697 0.03299 0
0.0132753 0.0341497 0
0.0177462 0.0351415 0
0.0218967 0.0361334 0
0.0260471 0.0370947 0
0.0301671 0.0380102 0
0.034287 0.03888 0
0.038407 0.0397192 0
0.0425269 0.0405432 0
0.0466468 0.0413214 0
0.0507515 0.0420844 0
0.0548714 0.0428168 0
0.0589914 0.043534 0
0.0630961 0.0442206 0
0.067216 0.044892 0
0.0713359 0.0455482 0
0.0754559 0.0461891 0
0.0795758 0.0467994 0
0.083711 0.0474098 0
0.0878309 0.0479896 0
0.0919661 0.0485695 0
0.0961013 0.049134 0
0.100237 0.0496834 0
0.104372 0.0502174 0
0.108522 0.0507362 0
0.112673 0.0512551 0
0.116823 0.0517586 0
0.120974 0.0522469 0
0.125139 0.0527199 0
0.129305 0.053193 0
0.133471 0.0536355 0
0.00161746 0.0388037 0
0.0056611 0.0398718 0
0.00967422 0.0408942 0
0.0134127 0.0419318 0
0.0179904 0.04271 0
0.0221103 0.0435645 0
0.0261845 0.0444038 0
0.0302434 0.0452125 0
0.0343023 0.0460059 0
0.0383612 0.0467689 0
0.0424201 0.0475013 0
0.046479 0.0482185 0
0.0505379 0.0489204 0
0.0545968 0.0496071 0
0.0586557 0.0502632 0
0.0627146 0.0509041 0
0.0667887 0.0515297 0
0.0708629 0.0521553 0
0.0749371 0.0527504 0
0.0790112 0.0533303 0
0.0830854 0.0539101 0
0.0871748 0.0544594 0
0.091249 0.0550088 0
0.0953384 0.0555428 0
0.099443 0.0560616 0
0.103532 0.0565805 0
0.107637 0.057084 0
0.111742 0.0575723 0
0.115846 0.0580453 0
0.119966 0.0585184 0
0.124086 0.0589914 0
0.128206 0.0594339 0
0.132326 0.0598764 0
0.00218204 0.0463722 0
0.00610361 0.047303 0
0.0099794 0.0482185 0
0.0135653 0.0491798 0
0.0181735 0.0498207 0
0.0222934 0.0505684 0
0.0263371 0.0513313 0
0.0303655 0.0520638 0
0.0343786 0.052781 0
0.0383917 0.0534829 0
0.0424048 0.0541695 0
0.0464179 0.0548257 0
0.0504311 0.0554818 0
0.0544594 0.0561074 0
0.0584726 0.056733 0
0.062501 0.0573434 0
0.0665293 0.0579232 0
0.0705577 0.0585031 0
0.0746014 0.0590677 0
0.078645 0.0596323 0
0.0826886 0.0601663 0
0.0867323 0.0607004 0
0.0907759 0.0612192 0
0.0948348 0.0617227 0
0.0988937 0.0622263 0
0.102953 0.0627146 0
0.107027 0.0632029 0
0.111101 0.0636759 0
0.115175 0.0641337 0
0.119249 0.0645914 0
0.123339 0.0650339 0
0.127428 0.0654612 0
0.131518 0.0658885 0
0.00260929 0.0534829 0
0.00643931 0.0543221 0
0.0102388 0.0551614 0
0.0137026 0.0560616 0
0.0183261 0.056611 0
0.0224613 0.0572824 0
0.0265049 0.057969 0
0.0304875 0.0586404 0
0.0344854 0.0593118 0
0.038468 0.0599527 0
0.0424353 0.0605936 0
0.0464179 0.0612039 0
0.0504158 0.0618143 0
0.0543984 0.0624094 0
0.058381 0.0630045 0
0.0623789 0.0635691 0
0.0663767 0.0641337 0
0.0703746 0.0646677 0
0.0743877 0.0652171 0
0.0784009 0.0657359 0
0.082414 0.0662547 0
0.0864271 0.0667582 0
0.0904555 0.0672618 0
0.0944839 0.0677348 0
0.0985122 0.0682231 0
0.102541 0.0686809 0
0.106584 0.0691539 0
0.110628 0.0695964 0
0.114687 0.0700389 0
0.11873 0.0704814 0
0.122789 0.0709087 0
0.126848 0.0713207 0
0.130922 0.0717327 0
0.00296025 0.0602579 0
0.00672923 0.0610513 0
0.0104524 0.0618143 0
0.0138247 0.0626688 0
0.0184482 0.0631571 0
0.0226291 0.0637522 0
0.0266423 0.0643778 0
0.0306249 0.0650034 0
0.0345922 0.0656291 0
0.0385595 0.0662242 0
0.0425116 0.0668193 0
0.0464637 0.0674144 0
0.0504311 0.0679789 0
0.0543832 0.0685435 0
0.0583505 0.0690929 0
0.0623178 0.0696269 0
0.0662852 0.070161 0
0.0702678 0.0706798 0
0.0742504 0.0711986 0
0.078233 0.0717021 0
0.0822309 0.0721904 0
0.0862135 0.0726635 0
0.0902113 0.0731518 0
0.0942245 0.0736095 0
0.0982223 0.0740673 0
0.102235 0.0745251 0
0.106264 0.0749523 0
0.110277 0.0753948 0
0.114305 0.0758221 0
0.118334 0.0762341 0
0.122377 0.0766461 0
0.126421 0.0770581 0
0.130465 0.0774548 0
0.00325017 0.0667887 0
0.00697337 0.0675212 0
0.0106355 0.0682536 0
0.0139467 0.0690623 0
0.0185397 0.0695048 0
0.0227665 0.0700389 0
0.0267948 0.0706188 0
0.0307622 0.0711986 0
0.0347143 0.0717632 0
0.0386511 0.072343 0
0.0425879 0.0728923 0
0.0465248 0.0734569 0
0.0504616 0.073991 0
0.0543984 0.0745251 0
0.0583505 0.0750439 0
0.0623026 0.0755627 0
0.0662547 0.0760662 0
0.0702068 0.0765545 0
0.0741588 0.0770428 0
0.0781262 0.0775311 0
0.0820935 0.0779889 0
0.0860761 0.0784619 0
0.0900587 0.0789197 0
0.0940414 0.0793622 0
0.098024 0.0798047 0
0.102022 0.0802319 0
0.10602 0.0806592 0
0.110018 0.0810712 0
0.114031 0.0814832 0
0.118029 0.0818799 0
0.122057 0.0822766 0
0.12607 0.0826734 0
0.130098 0.0830549 0
0.00350958 0.0731212 0
0.007187 0.0738079 0
0.0108034 0.0745098 0
0.0140536 0.0752728 0
0.018616 0.0756847 0
0.0228885 0.0761578 0
0.0269169 0.0766918 0
0.0308843 0.0772412 0
0.0348363 0.0777752 0
0.0387579 0.0783093 0
0.0426795 0.0788434 0
0.0466011 0.0793622 0
0.0505226 0.079881 0
0.0544442 0.0803845 0
0.0583658 0.0808728 0
0.0623026 0.0813764 0
0.0662394 0.0818494 0
0.0701762 0.0823224 0
0.0741131 0.0827955 0
0.0780652 0.0832532 0
0.0820172 0.0836957 0
0.0859693 0.0841382 0
0.0899367 0.0845808 0
0.093904 0.085008 0
0.0978714 0.08542 0
0.101854 0.0858473 0
0.105821 0.086244 0
0.109819 0.086656 0
0.113802 0.0870527 0
0.1178 0.0874342 0
0.121798 0.0878157 0
0.125811 0.0881971 0
0.129809 0.0885634 0
0.00373846 0.0792859 0
0.00737011 0.079942 0
0.010956 0.0805982 0
0.0141451 0.0813458 0
0.0186465 0.0817273 0
0.0229953 0.0821393 0
0.027039 0.0826429 0
0.0310063 0.0831464 0
0.0349432 0.0836652 0
0.0388647 0.0841688 0
0.042771 0.0846723 0
0.0466773 0.0851606 0
0.0505837 0.0856489 0
0.05449 0.0861372 0
0.0584115 0.0866102 0
0.0623178 0.087068 0
0.0662394 0.087541 0
0.070161 0.0879835 0
0.0740978 0.088426 0
0.0780194 0.0888685 0
0.0819562 0.0892958 0
0.0859083 0.0897231 0
0.0898451 0.0901503 0
0.0937972 0.0905623 0
0.0977646 0.090959 0
0.101717 0.091371 0
0.105684 0.0917525 0
0.109651 0.0921492 0
0.113634 0.0925307 0
0.117617 0.0928969 0
0.121599 0.0932784 0
0.125582 0.0936294 0
0.12958 0.0939956 0
0.00392157 0.0852979 0
0.00753796 0.0859388 0
0.0110781 0.0865644 0
0.0142214 0.0872816 0
0.0186313 0.0876631 0
0.0231022 0.088014 0
0.0271611 0.0884718 0
0.0311131 0.0889448 0
0.03505 0.0894331 0
0.0389563 0.0899062 0
0.0428626 0.0903944 0
0.0467536 0.0908675 0
0.05066 0.0913252 0
0.054551 0.091783 0
0.0584573 0.0922408 0
0.0623484 0.0926833 0
0.0662699 0.0931258 0
0.0701762 0.0935531 0
0.0740826 0.0939803 0
0.0780041 0.0944076 0
0.0819257 0.0948196 0
0.0858625 0.0952316 0
0.0897993 0.0956283 0
0.0937362 0.096025 0
0.097673 0.0964218 0
0.101625 0.0968032 0
0.105577 0.0971847 0
0.109529 0.0975662 0
0.113497 0.0979324 0
0.117464 0.0982986 0
0.121431 0.0986496 0
0.125414 0.0990005 0
0.129396 0.0993515 0
0.00410468 0.0912032 0
0.00767529 0.0918135 0
0.0111849 0.0924086 0
0.0142977 0.0931106 0
0.0185702 0.093492 0
0.0231785 0.0937819 0
0.0272526 0.0942092 0
0.03122 0.0946517 0
0.0351415 0.0951095 0
0.0390478 0.0955673 0
0.0429541 0.096025 0
0.0468299 0.0964675 0
0.050721 0.09691 0
0.054612 0.0973526 0
0.0585031 0.0977798 0
0.0623941 0.0982223 0
0.0662852 0.0986343 0
0.0701915 0.0990463 0
0.0740978 0.0994583 0
0.0780041 0.0998703 0
0.0819104 0.100267 0
0.085832 0.100664 0
0.0897536 0.101045 0
0.0936751 0.101427 0
0.097612 0.101808 0
0.101549 0.102174 0
0.105486 0.102541 0
0.109438 0.102907 0
0.11339 0.103258 0
0.117342 0.103609 0
0.121309 0.10396 0
0.125277 0.104295 0
0.129244 0.104631 0
0.00424201 0.0970016 0
0.00779736 0.0975814 0
0.0112917 0.0981613 0
0.0143587 0.0988479 0
0.0183413 0.0992752 0
0.0232395 0.0994583 0
0.0273442 0.099855 0
0.0313115 0.100267 0
0.0352331 0.10071 0
0.0391394 0.101137 0
0.0430304 0.101564 0
0.0469062 0.101991 0
0.0507973 0.102419 0
0.0546731 0.102846 0
0.0585489 0.103258 0
0.0624399 0.10367 0
0.0663157 0.104082 0
0.0702068 0.104479 0
0.0741131 0.104875 0
0.0780041 0.105257 0
0.0819104 0.105638 0
0.0858167 0.10602 0
0.0897231 0.106401 0
0.0936446 0.106767 0
0.0975662 0.107134 0
0.101488 0.107485 0
0.105425 0.107836 0
0.109361 0.108186 0
0.113298 0.108537 0
0.11725 0.108873 0
0.121202 0.109209 0
0.125154 0.109529 0
0.129122 0.10985 0
0.00437934 0.102693 0
0.00790417 0.103258 0
0.011368 0.103822 0
0.0144198 0.104479 0
0.0182345 0.104936 0
0.0232853 0.105043 0
0.0274052 0.105409 0
0.0313878 0.105806 0
0.0353246 0.106218 0
0.0392157 0.10663 0
0.0431067 0.107042 0
0.0469825 0.107454 0
0.0508583 0.107866 0
0.0547341 0.108263 0
0.0586099 0.108659 0
0.0624857 0.109056 0
0.0663615 0.109453 0
0.0702373 0.109834 0
0.0741283 0.110216 0
0.0780194 0.110582 0
0.0819104 0.110948 0
0.0858015 0.111315 0
0.0897078 0.111681 0
0.0936141 0.112032 0
0.0975357 0.112383 0
0.101442 0.112734 0
0.105364 0.113069 0
0.1093 0.113405 0
0.113222 0.113741 0
0.117159 0.114076 0
0.121111 0.114397 0
0.125063 0.114717 0
0.129015 0.115023 0
0.00448615 0.108309 0
0.00799573 0.108843 0
0.0114443 0.109392 0
0.0144503 0.110048 0
0.0181735 0.110491 0
0.0233158 0.110567 0
0.0274662 0.110903 0
0.0314641 0.111269 0
0.0353857 0.111666 0
0.039292 0.112062 0
0.0431678 0.112444 0
0.0470436 0.11284 0
0.0509194 0.113237 0
0.0547799 0.113619 0
0.0586557 0.114 0
0.0625162 0.114382 0
0.066392 0.114748 0
0.0702678 0.115129 0
0.0741436 0.115496 0
0.0780194 0.115846 0
0.0819104 0.116213 0
0.0858015 0.116564 0
0.0896925 0.116915 0
0.0935988 0.11725 0
0.0975052 0.117586 0
0.101411 0.117922 0
0.105333 0.118257 0
0.109239 0.118578 0
0.113176 0.118898 0
0.117098 0.119219 0
0.121035 0.119524 0
0.124971 0.119844 0
0.128923 0.120134 0
0.00457771 0.113832 0
0.00807202 0.114366 0
0.01149 0.1149 0
0.0144808 0.115526 0
0.0181277 0.115984 0
0.0233463 0.116014 0
0.027512 0.11632 0
0.0315099 0.11667 0
0.0354467 0.117037 0
0.039353 0.117418 0
0.0432288 0.1178 0
0.0471046 0.118166 0
0.0509651 0.118547 0
0.0548257 0.118914 0
0.0586862 0.11928 0
0.062562 0.119646 0
0.0664225 0.120012 0
0.0702983 0.120363 0
0.0741588 0.120714 0
0.0780346 0.121065 0
0.0819257 0.121416 0
0.0858015 0.121752 0
0.0896925 0.122087 0
0.0935836 0.122423 0
0.0974746 0.122744 0
0.101381 0.123064 0
0.105287 0.123384 0
0.109209 0.123705 0
0.113115 0.12401 0
0.117037 0.124315 0
0.120974 0.12462 0
0.124895 0.12491 0
0.128832 0.125216 0
0.004654 0.11931 0
0.00813306 0.119814 0
0.0115358 0.120333 0
0.0144961 0.120958 0
0.0180819 0.121401 0
0.0233463 0.121401 0
0.0275425 0.121675 0
0.0315557 0.122011 0
0.0355077 0.122362 0
0.0393988 0.122713 0
0.0432898 0.123079 0
0.0471504 0.123445 0
0.0510109 0.123796 0
0.0548714 0.124147 0
0.058732 0.124514 0
0.0625925 0.124865 0
0.066453 0.1252 0
0.0703136 0.125551 0
0.0741894 0.125887 0
0.0780499 0.126223 0
0.0819257 0.126558 0
0.0858015 0.126879 0
0.0896925 0.127214 0
0.0935683 0.127535 0
0.0974594 0.12784 0
0.101366 0.128161 0
0.105257 0.128466 0
0.109163 0.128771 0
0.113085 0.129076 0
0.116991 0.129366 0
0.120912 0.129656 0
0.124834 0.129946 0
0.128771 0.130236 0
0.00471504 0.124697 0
0.00817884 0.1252 0
0.0115663 0.125704 0
0.0145113 0.126314 0
0.0180362 0.126757 0
0.023331 0.126726 0
0.0275731 0.126986 0
0.0316014 0.127291 0
0.0355383 0.127626 0
0.0394446 0.127962 0
0.0433204 0.128313 0
0.0471962 0.128664 0
0.0510567 0.129 0
0.0549172 0.129351 0
0.0587625 0.129686 0
0.062623 0.130022 0
0.0664836 0.130358 0
0.0703441 0.130694 0
0.0742046 0.131014 0
0.0780652 0.131334 0
0.0819257 0.131655 0
0.0858015 0.131975 0
0.0896773 0.132296 0
0.0935683 0.132601 0
0.0974441 0.132906 0
0.101335 0.133211 0
0.105241 0.133501 0
0.109133 0.133806 0
0.113039 0.134096 0
0.116945 0.134371 0
0.120867 0.134661 0
0.124788 0.134936 0
0.12871 0.13521 0
0.00476081 0.130037 0
0.00820935 0.130526 0
0.0115816 0.131014 0
0.0145113 0.131609 0
0.0179751 0.132052 0
0.0233005 0.132006 0
0.0275731 0.132235 0
0.0316167 0.132525 0
0.0355688 0.132845 0
0.0394751 0.133165 0
0.0433661 0.133486 0
0.0472267 0.133822 0
0.0510872 0.134157 0
0.0549477 0.134478 0
0.058793 0.134813 0
0.0626383 0.135134 0
0.0664988 0.135454 0
0.0703593 0.135775 0
0.0742046 0.136095 0
0.0780652 0.136416 0
0.0819409 0.136721 0
0.0858015 0.137026 0
0.0896773 0.137331 0
0.0935531 0.137621 0
0.0974289 0.137926 0
0.10132 0.138216 0
0.105211 0.138506 0
0.109102 0.138781 0
0.113008 0.139071 0
0.116915 0.139345 0
0.120821 0.13962 0
0.124727 0.139895 0
0.128649 0.140154 0
0.00479133 0.135332 0
0.00822461 0.13579 0
0.0115816 0.136278 0
0.0144961 0.136858 0
0.0179294 0.137301 0
0.02327 0.137224 0
0.0275731 0.137438 0
0.031632 0.137713 0
0.035584 0.138003 0
0.0395056 0.138308 0
0.0433814 0.138628 0
0.0472572 0.138949 0
0.0511177 0.139269 0
0.054963 0.13959 0
0.0588083 0.139895 0
0.0626688 0.140215 0
0.0665141 0.14052 0
0.0703593 0.140826 0
0.0742199 0.141131 0
0.0780804 0.141436 0
0.0819409 0.141741 0
0.0858015 0.142031 0
0.0896773 0.142321 0
0.0935378 0.142611 0
0.0974136 0.142901 0
0.101305 0.143175 0
0.10518 0.143465 0
0.109071 0.14374 0
0.112978 0.143999 0
0.116869 0.144274 0
0.120775 0.144533 0
0.124681 0.144808 0
0.128603 0.145052 0
0.00480659 0.140566 0
0.00823987 0.141024 0
0.0115816 0.141482 0
0.0144656 0.142061 0
0.0178683 0.142489 0
0.023209 0.142412 0
0.0275578 0.14258 0
0.031632 0.14284 0
0.0355993 0.14313 0
0.0395209 0.14342 0
0.0433967 0.143725 0
0.0472725 0.14403 0
0.051133 0.144335 0
0.0549783 0.14464 0
0.0588235 0.144945 0
0.0626841 0.145235 0
0.0665293 0.145541 0
0.0703746 0.145846 0
0.0742199 0.146136 0
0.0780804 0.146426 0
0.0819409 0.146715 0
0.0858015 0.147005 0
0.089662 0.14728 0
0.0935378 0.147555 0
0.0974136 0.147829 0
0.101289 0.148104 0
0.105165 0.148379 0
0.109056 0.148638 0
0.112947 0.148913 0
0.116838 0.149172 0
0.120729 0.149416 0
0.124636 0.149676 0
0.128542 0.14992 0
0.00482185 0.145739 0
0.00823987 0.146197 0
0.0115511 0.146654 0
0.014435 0.147219 0
0.017792 0.147646 0
0.0231327 0.147539 0
0.0275425 0.147692 0
0.0316167 0.147936 0
0.0355993 0.148196 0
0.0395209 0.148486 0
0.0434119 0.148775 0
0.0472725 0.149065 0
0.051133 0.149355 0
0.0549935 0.149645 0
0.0588388 0.149935 0
0.0626841 0.15024 0
0.0665293 0.150515 0
0.0703746 0.150805 0
0.0742351 0.151095 0
0.0780804 0.151369 0
0.0819409 0.151659 0
0.0858015 0.151934 0
0.089662 0.152193 0
0.0935225 0.152468 0
0.0973983 0.152743 0
0.101259 0.153002 0
0.10515 0.153262 0
0.109026 0.153521 0
0.112917 0.15378 0
0.116808 0.154025 0
0.120699 0.154269 0
0.124605 0.154513 0
0.128496 0.154757 0
0.00480659 0.150881 0
0.00820935 0.151324 0
0.0115206 0.151766 0
0.0143893 0.152316 0
0.0177157 0.152743 0
0.0230411 0.152636 0
0.0274968 0.152758 0
0.0316014 0.152987 0
0.035584 0.153246 0
0.0395209 0.153506 0
0.0434119 0.15378 0
0.0472725 0.15407 0
0.051133 0.154345 0
0.0549935 0.15462 0
0.0588388 0.15491 0
0.0626841 0.155184 0
0.0665293 0.155459 0
0.0703746 0.155734 0
0.0742199 0.156008 0
0.0780804 0.156283 0
0.0819257 0.156558 0
0.0857862 0.156817 0
0.0896468 0.157092 0
0.0935073 0.157351 0
0.0973831 0.15761 0
0.101244 0.157855 0
0.105119 0.158114 0
0.108995 0.158358 0
0.112886 0.158602 0
0.116777 0.158846 0
0.120668 0.159091 0
0.124559 0.159319 0
0.128466 0.159564 0
0.00479133 0.155978 0
0.00817884 0.156405 0
0.01149 0.156847 0
0.0143282 0.157397 0
0.0176394 0.157809 0
0.0229343 0.157702 0
0.027451 0.157794 0
0.0315709 0.158007 0
0.0355688 0.158236 0
0.0395056 0.158495 0
0.0433967 0.158755 0
0.0472725 0.15903 0
0.051133 0.159289 0
0.0549935 0.159564 0
0.0588388 0.159838 0
0.0626841 0.160098 0
0.0665293 0.160372 0
0.0703746 0.160632 0
0.0742199 0.160906 0
0.0780652 0.161166 0
0.0819257 0.161425 0
0.085771 0.161685 0
0.0896315 0.161929 0
0.093492 0.162188 0
0.0973526 0.162432 0
0.101228 0.162676 0
0.105104 0.162921 0
0.10898 0.163165 0
0.112856 0.163409 0
0.116747 0.163638 0
0.120623 0.163867 0
0.124514 0.164111 0
0.12842 0.164324 0
0.00476081 0.161044 0
0.00814832 0.161456 0
0.011429 0.161883 0
0.0142672 0.162417 0
0.0175479 0.162829 0
0.0228275 0.162722 0
0.0274052 0.162783 0
0.0315404 0.162982 0
0.0355383 0.163195 0
